icon_installer/data/icons/scalable/actions/show-markdown-symbolic.svg

<?xml version="1.0" encoding="UTF-8"?>
<svg height="16px" viewBox="0 0 16 16" width="16px" xmlns="http://www.w3.org/2000/svg">
    <path d="m 0 2 v 2 h 16 v -2 z m 0 3 v 7 h 2 v -4.542969 l 2.09375 4.542969 h 1.8125 l 2.09375 -4.542969 v 4.542969 h 2 v -7 h -3 l -2 4 l -2 -4 z m 10 4 l 3 3 l 3 -3 h -2 v -4 h -2 v 4 z m -10 4 v 2 h 16 v -2 z m 0 0" fill="#222222"/>
</svg>

<svg xmlns="http://www.w3.org/2000/svg" width="16" height="16"><path fill="#222" d="M0 2v2h16V2zm0 3v7h2V7.457L4.094 12h1.812L8 7.457V12h2V5H7L5 9 3 5zm10 4 3 3 3-3h-2V5h-2v4zM0 13v2h16v-2zm0 0"/></svg>
